X: 213
%
U:~=!turn!
T: Green Grow the Rashes
C:
O:Scotland
B:Keith Norman MacDonald : "The Skye collection of the best reels & strathspeys extant" : 1887
Z:Ralph Palmer
R:Reel
M:C
L:1/8
K:E aeolian
D | G/G/G (BA) B>GGB | A/A/A (ed) e>AAB | c2 ce (dB)GB | A/B/c BA (GE)E :|
D | G/G/G (g>f) g>ddg | e/e/e (a>^g) a>eef | gage dBGB | (A/B/c) BA (GE)ED |
G/G/G (gf) g>ddg | e/e/e (a>^g) a>eef | gbeg dgBg | AcBA GEE |]


